img/gerard-smile.svg

<svg height="280" viewBox="0 0 264 280" width="264" xmlns="http://www.w3.org/2000/svg" xmlns:xlink="http://www.w3.org/1999/xlink"><defs><path id="a" d="m124 144.610951v18.389049h4c39.764502 0 72 32.235498 72 72v9h-200v-9c0-39.764502 32.235498-72 72-72h4v-18.389049c-17.2373655-8.188579-29.6277754-24.92394-31.6948612-44.7297125-5.8248283-.8234519-10.3051388-5.8291289-10.3051388-11.8812385v-14c0-5.9459926 4.3245733-10.8819269 10-11.8340831v-6.1659169c0-30.927946 25.072054-56 56-56 30.927946 0 56 25.072054 56 56v6.1659169c5.675427.9521562 10 5.8880905 10 11.8340831v14c0 6.0521096-4.48031 11.0577866-10.305139 11.8812385-2.067086 19.8057725-14.457496 36.5411335-31.694861 44.7297125z"/><mask id="b" fill="#fff"><use fill="#fff" fill-rule="evenodd" xlink:href="#a"/></mask><mask id="c" fill="#fff"><use fill="#fff" fill-rule="evenodd" xlink:href="#h"/></mask><mask id="d" fill="#fff"><use fill="#fff" fill-rule="evenodd" xlink:href="#i"/></mask><mask id="e" fill="#fff"><path d="m0 0h264v280h-264z" fill="#fff" fill-rule="evenodd"/></mask><mask id="f" fill="#fff"><use fill="#fff" fill-rule="evenodd" xlink:href="#k"/></mask><mask id="g" fill="#fff"><use fill="#fff" fill-rule="evenodd" xlink:href="#j"/></mask><path id="h" d="m108 13.0708856c-17.9186994 2.0050524-31.7201576 7.4809485-31.995797 21.574082-25.8577701 10.9231257-44.004203 36.5196581-44.004203 66.3545174v9.000515h200v-9.000515c0-29.8348593-18.146433-55.4313917-44.004203-66.3545018-.275639-14.0931491-14.077098-19.5690452-31.995797-21.5740976v18.9291144c0 13.254834-10.745166 24-24 24-13.254834 0-24-10.745166-24-24z"/><path id="i" d="m35.117844 15.1280772c1.0578681 9.4917253 9.1081433 16.8719228 18.882156 16.8719228 9.8042055 0 17.8740075-7.425864 18.8917593-16.9599454.0819092-.7673086-.7750164-2.0400546-1.8489923-2.0400546-14.8940134 0-26.3048457 0-33.9559426 0-1.0802076 0-2.0748186 1.1784435-1.9689804 2.1280772z"/><path id="j" d="m1 64c.34685629 1.488448 1.67275588 1.2226722 2 0-.46273995-1.554278 3.29594493-28.7519281 13-36 3.618222-2.5166128 23.0082164-4.7680901 42.3126144-4.754432 19.0959917.0135107 38.1082252 2.2649881 41.6873856 4.754432 9.704055 7.2480719 13.46274 34.445722 13 36 .327244 1.2226722 1.653144 1.488448 2 0 .719178-10.2980823 0-63.72563718-57-63s-57.71917845 52.7019177-57 63z"/><path id="k" d="m101.428403 98.1685688c-2.5135658 2.2940522-5.191183 3.3257402-8.5754586 2.6042942-.5823667-.12403-2.9566053-4.5382917-8.85311-4.5382917s-8.2704091 4.4142617-8.8531099 4.5382917c-3.3842757.721446-6.0618929-.310242-8.5754584-2.6042942-4.7250889-4.3129648-8.6546442-10.260383-6.2934362-16.7493874 1.2305545-3.3822389 3.231918-7.0954472 6.8727958-8.1732705 3.8877906-1.150369 9.3462674-.0020058 13.2641285-.7876401 1.2693122-.254746 2.6558996-.7074051 3.5850802-1.4582708.9291806.7508657 2.3161021 1.2035248 3.5847461 1.4582708 3.9181953.7856343 9.376672-.3627289 13.2644625.7876401 3.640878 1.0778233 5.642241 4.7910316 6.87313 8.1732705 2.361208 6.4890044-1.568347 12.4364226-6.29377 16.7493874m38.65263-72.1685688c-3.41034 8.4002532-2.093259 18.8580348-2.724367 27.6758724-.512628 7.1673218-2.019546 17.9098802-8.383808 22.5386586-3.254497 2.3670828-9.178498 6.3453676-13.430988 5.2356633-2.927331-.7638095-3.239688-9.1600983-7.086586-12.3032142-4.363564-3.5646648-9.8122986-5.1309369-15.3061359-4.8891079-2.37061.1043961-7.1650114.0796186-9.149215 1.9025862-1.9842036-1.8229676-6.7782684-1.7981901-9.1488784-1.9025862-5.4941739-.241829-10.942908 1.3244431-15.306473 4.8891079-3.8468978 3.1431159-4.1589176 11.5394047-7.0862491 12.3032142-4.2524899 1.1097043-10.1764905-2.8685805-13.4313249-5.2356633-6.3645981-4.6287784-7.8708425-15.3713368-8.3841437-22.5386586-.6307714-8.8178376.6863089-19.2756192-2.7240305-27.6758724-1.6590567 0-.5647996 16.1288693-.5647996 16.1288693v20.3562512c.0316396 15.2880841 9.5810611 38.1703245 30.7539777 46.9078835 5.178115 2.136816 16.9072995 5.606996 25.8919215 5.606996s20.7138069-3.139812 25.8919219-5.276629c21.172916-8.737558 30.722338-31.9501664 30.754314-47.2382505v-20.3562512s1.09392-16.1288693-.565136-16.1288693"/></defs><g fill="none" fill-rule="evenodd"><g transform="translate(32 36)"><use fill="#d0c6ac" xlink:href="#a"/><g fill="#ffdbb4" mask="url(#b)"><path d="m0 0h264v244h-264z" transform="translate(-32)"/></g><path d="m156 79v23c0 30.927946-25.072054 56-56 56s-56-25.072054-56-56v-23 15c0 30.927946 25.072054 56 56 56s56-25.072054 56-56z" fill="#000" fill-opacity=".1" mask="url(#b)"/></g><g fill-rule="evenodd" transform="translate(0 170)"><use fill="#b7c1db" xlink:href="#h"/><g fill="#262e33" mask="url(#c)"><path d="m0 0h264v110h-264z"/></g><path d="m102 61.7390531v48.2609469h-7v-51.8497375c2.2037542 1.3097951 4.5467694 2.5105253 7 3.5887906zm67-3.5887906v40.3497375c0 1.932997-1.567003 3.5-3.5 3.5s-3.5-1.567003-3.5-3.5v-36.7609469c2.453231-1.0782653 4.796246-2.2789955 7-3.5887906z" fill="#f4f4f4" mask="url(#c)"/><path d="m90.9601329 12.7243537c-15.0508234 2.8468245-25.4601329 8.518531-25.4601329 19.5833386 0 19.7123172 33.0376807 35.6923077 66.5 35.6923077 33.462319 0 66.5-15.9799905 66.5-35.6923077 0-11.0648076-10.40931-16.7365141-25.460133-19.5833386 9.085054 3.3501061 14.960133 8.9817009 14.960133 18.3525694 0 20.3920523-27.821205 36.9230769-56 36.9230769s-56-16.5310246-56-36.9230769c0-9.3708685 5.8750795-15.0024633 14.9601329-18.3525694z" fill="#000" fill-opacity=".16" mask="url(#c)"/></g><g fill="#000"><g fill-rule="evenodd" transform="translate(78 134)"><use fill="#000" fill-opacity=".7" xlink:href="#i"/><rect fill="#fff" height="16" mask="url(#d)" rx="5" width="31" x="39" y="2"/><g fill="#ff4f6d" mask="url(#d)"><g transform="translate(38 24)"><circle cx="11" cy="11" r="11"/><circle cx="21" cy="11" r="11"/></g></g></g><path d="m16 8c0 4.418278 5.372583 8 12 8 6.627417 0 12-3.581722 12-8" fill-opacity=".16" transform="translate(104 122)"/><g fill-opacity=".6"><g><circle cx="106" cy="112" r="6"/><circle cx="158" cy="112" r="6"/></g><g fill-rule="nonzero" transform="translate(88 88)"><path d="m3.63024536 11.1585767c3.91490965-5.50870997 14.64767434-8.59773949 23.89278144-6.32739624 1.072698.26342504 2.1558397-.39262033 2.4192648-1.46531834.263425-1.07269802-.3926204-2.15583976-1.4653184-2.4192648-10.7366099-2.63661521-23.16487358.940401-28.10721856 7.89482594-.63986427.90035965-.42869103 2.14895784.47166862 2.78882214.90035965.6398642 2.14895784.428691 2.7888221-.4716687z"/><path d="m61.6302454 11.1585767c3.9149096-5.50870997 14.6476743-8.59773949 23.8927814-6.32739624 1.072698.26342504 2.1558397-.39262033 2.4192648-1.46531834.263425-1.07269802-.3926204-2.15583976-1.4653184-2.4192648-10.7366099-2.63661521-23.1648736.940401-28.1072186 7.89482594-.6398642.90035965-.428691 2.14895784.4716687 2.78882214.9003596.6398642 2.1489578.428691 2.7888221-.4716687z" transform="matrix(-1 0 0 1 146.000308 0)"/></g></g></g><g fill-rule="evenodd" mask="url(#e)"><g transform="translate(48 72)"><use fill="#331b0c" fill-rule="evenodd" xlink:href="#k"/><g fill="#c93305" mask="url(#f)"><path d="m0 0h264v244h-264z" transform="translate(-32)"/></g></g><g fill-rule="evenodd" transform="translate(74 34)"><use fill="#28354b" xlink:href="#j"/><g fill="#c93305" mask="url(#g)"><path d="m0 0h264v280h-264z"/></g></g></g></g></svg>

<svg width="264px" height="280px" viewBox="0 0 264 280" version="1.1" xmlns="http://www.w3.org/2000/svg" xmlns:xlink="http://www.w3.org/1999/xlink"><desc>Created with getavataaars.com</desc><defs><circle id="path-1" cx="120" cy="120" r="120"></circle><path d="M12,160 C12,226.27417 65.72583,280 132,280 C198.27417,280 252,226.27417 252,160 L264,160 L264,-1.42108547e-14 L-3.19744231e-14,-1.42108547e-14 L-3.19744231e-14,160 L12,160 Z" id="path-3"></path><path d="M124,144.610951 L124,163 L128,163 L128,163 C167.764502,163 200,195.235498 200,235 L200,244 L0,244 L0,235 C-4.86974701e-15,195.235498 32.235498,163 72,163 L72,163 L76,163 L76,144.610951 C58.7626345,136.422372 46.3722246,119.687011 44.3051388,99.8812385 C38.4803105,99.0577866 34,94.0521096 34,88 L34,74 C34,68.0540074 38.3245733,63.1180731 44,62.1659169 L44,56 L44,56 C44,25.072054 69.072054,5.68137151e-15 100,0 L100,0 L100,0 C130.927946,-5.68137151e-15 156,25.072054 156,56 L156,62.1659169 C161.675427,63.1180731 166,68.0540074 166,74 L166,88 C166,94.0521096 161.51969,99.0577866 155.694861,99.8812385 C153.627775,119.687011 141.237365,136.422372 124,144.610951 Z" id="path-5"></path></defs><g id="Avataaar" stroke="none" stroke-width="1" fill="none" fill-rule="evenodd"><g transform="translate(-825.000000, -1100.000000)" id="Avataaar/Circle"><g transform="translate(825.000000, 1100.000000)"><g id="Mask"></g><g id="Avataaar" stroke-width="1" fill-rule="evenodd" mask="url(#mask-4)"><g id="Body" transform="translate(32.000000, 36.000000)"><mask id="mask-6" fill="white"><use xlink:href="#path-5"></use></mask><use fill="#D0C6AC" xlink:href="#path-5"></use><g id="Skin/👶🏽-03-Brown" mask="url(#mask-6)" fill="#FFDBB4"><g transform="translate(-32.000000, 0.000000)" id="Color"><rect x="0" y="0" width="264" height="244"></rect></g></g><path d="M156,79 L156,102 C156,132.927946 130.927946,158 100,158 C69.072054,158 44,132.927946 44,102 L44,79 L44,94 C44,124.927946 69.072054,150 100,150 C130.927946,150 156,124.927946 156,94 L156,79 Z" id="Neck-Shadow" fill-opacity="0.100000001" fill="#000000" mask="url(#mask-6)"></path></g><g id="Clothing/Hoodie" transform="translate(0.000000, 170.000000)"><defs><path d="M108,13.0708856 C90.0813006,15.075938 76.2798424,20.5518341 76.004203,34.6449676 C50.1464329,45.5680933 32,71.1646257 32,100.999485 L32,100.999485 L32,110 L232,110 L232,100.999485 C232,71.1646257 213.853567,45.5680933 187.995797,34.6449832 C187.720158,20.5518341 173.918699,15.075938 156,13.0708856 L156,32 L156,32 C156,45.254834 145.254834,56 132,56 L132,56 C118.745166,56 108,45.254834 108,32 L108,13.0708856 Z" id="react-path-21"></path></defs><mask id="react-mask-22" fill="white"><use xlink:href="#react-path-21"></use></mask><use id="Hoodie" fill="#B7C1DB" fill-rule="evenodd" xlink:href="#react-path-21"></use><g id="Color/Palette/Gray-01" mask="url(#react-mask-22)" fill-rule="evenodd" fill="#262E33"><rect id="🖍Color" x="0" y="0" width="264" height="110"></rect></g><path d="M102,61.7390531 L102,110 L95,110 L95,58.1502625 C97.2037542,59.4600576 99.5467694,60.6607878 102,61.7390531 Z M169,58.1502625 L169,98.5 C169,100.432997 167.432997,102 165.5,102 C163.567003,102 162,100.432997 162,98.5 L162,61.7390531 C164.453231,60.6607878 166.796246,59.4600576 169,58.1502625 Z" id="Straps" fill="#F4F4F4" fill-rule="evenodd" mask="url(#react-mask-22)"></path><path d="M90.9601329,12.7243537 C75.9093095,15.5711782 65.5,21.2428847 65.5,32.3076923 C65.5,52.0200095 98.5376807,68 132,68 C165.462319,68 198.5,52.0200095 198.5,32.3076923 C198.5,21.2428847 188.09069,15.5711782 173.039867,12.7243537 C182.124921,16.0744598 188,21.7060546 188,31.0769231 C188,51.4689754 160.178795,68 132,68 C103.821205,68 76,51.4689754 76,31.0769231 C76,21.7060546 81.8750795,16.0744598 90.9601329,12.7243537 Z" id="Shadow" fill-opacity="0.16" fill="#000000" fill-rule="evenodd" mask="url(#react-mask-22)"></path></g><g id="Face" transform="translate(76.000000, 82.000000)" fill="#000000"><g id="Mouth/Smile" transform="translate(2.000000, 52.000000)"><defs><path d="M35.117844,15.1280772 C36.1757121,24.6198025 44.2259873,32 54,32 C63.8042055,32 71.8740075,24.574136 72.8917593,15.0400546 C72.9736685,14.272746 72.1167429,13 71.042767,13 C56.1487536,13 44.7379213,13 37.0868244,13 C36.0066168,13 35.0120058,14.1784435 35.117844,15.1280772 Z" id="react-path-55"></path></defs><mask id="react-mask-56" fill="white"><use xlink:href="#react-path-55"></use></mask><use id="Mouth" fill-opacity="0.699999988" fill="#000000" fill-rule="evenodd" xlink:href="#react-path-55"></use><rect id="Teeth" fill="#FFFFFF" fill-rule="evenodd" mask="url(#react-mask-56)" x="39" y="2" width="31" height="16" rx="5"></rect><g id="Tongue" stroke-width="1" fill-rule="evenodd" mask="url(#react-mask-56)" fill="#FF4F6D"><g transform="translate(38.000000, 24.000000)"><circle cx="11" cy="11" r="11"></circle><circle cx="21" cy="11" r="11"></circle></g></g></g><g id="Nose/Default" transform="translate(28.000000, 40.000000)" fill-opacity="0.16"><path d="M16,8 C16,12.418278 21.372583,16 28,16 L28,16 C34.627417,16 40,12.418278 40,8" id="Nose"></path></g><g id="Eyes/Default-😀" transform="translate(0.000000, 8.000000)" fill-opacity="0.599999964"><circle id="Eye" cx="30" cy="22" r="6"></circle><circle id="Eye" cx="82" cy="22" r="6"></circle></g><g id="Eyebrow/Outline/Default" fill-opacity="0.599999964"><g id="I-Browse" transform="translate(12.000000, 6.000000)"><path d="M3.63024536,11.1585767 C7.54515501,5.64986673 18.2779197,2.56083721 27.5230268,4.83118046 C28.5957248,5.0946055 29.6788665,4.43856013 29.9422916,3.36586212 C30.2057166,2.2931641 29.5496712,1.21002236 28.4769732,0.94659732 C17.7403633,-1.69001789 5.31209962,1.88699832 0.369754639,8.84142326 C-0.270109626,9.74178291 -0.0589363917,10.9903811 0.84142326,11.6302454 C1.74178291,12.2701096 2.9903811,12.0589364 3.63024536,11.1585767 Z" id="Eyebrow" fill-rule="nonzero"></path><path d="M61.6302454,11.1585767 C65.545155,5.64986673 76.2779197,2.56083721 85.5230268,4.83118046 C86.5957248,5.0946055 87.6788665,4.43856013 87.9422916,3.36586212 C88.2057166,2.2931641 87.5496712,1.21002236 86.4769732,0.94659732 C75.7403633,-1.69001789 63.3120996,1.88699832 58.3697546,8.84142326 C57.7298904,9.74178291 57.9410636,10.9903811 58.8414233,11.6302454 C59.7417829,12.2701096 60.9903811,12.0589364 61.6302454,11.1585767 Z" id="Eyebrow" fill-rule="nonzero" transform="translate(73.000154, 6.039198) scale(-1, 1) translate(-73.000154, -6.039198) "></path></g></g></g><g id="Top" stroke-width="1" fill-rule="evenodd"><defs><rect id="react-path-204" x="0" y="0" width="264" height="280"></rect><path d="M1,64 C1.34685629,65.488448 2.67275588,65.2226722 3,64 C2.53726005,62.445722 6.29594493,35.2480719 16,28 C19.618222,25.4833872 39.0082164,23.2319099 58.3126144,23.245568 C77.4086061,23.2590787 96.4208396,25.5105561 100,28 C109.704055,35.2480719 113.46274,62.445722 113,64 C113.327244,65.2226722 114.653144,65.488448 115,64 C115.719178,53.7019177 115,0.274362825 58,1 C1,1.72563718 0.280821545,53.7019177 1,64 Z" id="react-path-205"></path><filter x="-0.8%" y="-2.0%" width="101.5%" height="108.0%" filterUnits="objectBoundingBox" id="react-filter-201"><feOffset dx="0" dy="2" in="SourceAlpha" result="shadowOffsetOuter1"></feOffset><feColorMatrix values="0 0 0 0 0   0 0 0 0 0   0 0 0 0 0  0 0 0 0.16 0" type="matrix" in="shadowOffsetOuter1" result="shadowMatrixOuter1"></feColorMatrix><feMerge><feMergeNode in="shadowMatrixOuter1"></feMergeNode><feMergeNode in="SourceGraphic"></feMergeNode></feMerge></filter></defs><mask id="react-mask-202" fill="white"><use xlink:href="#react-path-204"></use></mask><g id="Mask"></g><g id="Top/Short-Hair/The-Caesar" mask="url(#react-mask-202)"><g transform="translate(-1.000000, 0.000000)"><g id="Facial-Hair/Beard-Light" transform="translate(49.000000, 72.000000)"><defs><path d="M101.428403,98.1685688 C98.9148372,100.462621 96.23722,101.494309 92.8529444,100.772863 C92.2705777,100.648833 89.8963391,96.2345713 83.9998344,96.2345713 C78.1033297,96.2345713 75.7294253,100.648833 75.1467245,100.772863 C71.7624488,101.494309 69.0848316,100.462621 66.5712661,98.1685688 C61.8461772,93.855604 57.9166219,87.9081858 60.2778299,81.4191814 C61.5083844,78.0369425 63.5097479,74.3237342 67.1506257,73.2459109 C71.0384163,72.0955419 76.4968931,73.2439051 80.4147542,72.4582708 C81.6840664,72.2035248 83.0706538,71.7508657 83.9998344,71 C84.929015,71.7508657 86.3159365,72.2035248 87.5845805,72.4582708 C91.5027758,73.2439051 96.9612525,72.0955419 100.849043,73.2459109 C104.489921,74.3237342 106.491284,78.0369425 107.722173,81.4191814 C110.083381,87.9081858 106.153826,93.855604 101.428403,98.1685688 M140.081033,26 C136.670693,34.4002532 137.987774,44.8580348 137.356666,53.6758724 C136.844038,60.8431942 135.33712,71.5857526 128.972858,76.214531 C125.718361,78.5816138 119.79436,82.5598986 115.54187,81.4501943 C112.614539,80.6863848 112.302182,72.290096 108.455284,69.1469801 C104.09172,65.5823153 98.6429854,64.0160432 93.1491481,64.2578722 C90.7785381,64.3622683 85.9841367,64.3374908 83.9999331,66.1604584 C82.0157295,64.3374908 77.2216647,64.3622683 74.8510547,64.2578722 C69.3568808,64.0160432 63.9081467,65.5823153 59.5445817,69.1469801 C55.6976839,72.290096 55.3856641,80.6863848 52.4583326,81.4501943 C48.2058427,82.5598986 42.2818421,78.5816138 39.0270077,76.214531 C32.6624096,71.5857526 31.1561652,60.8431942 30.642864,53.6758724 C30.0120926,44.8580348 31.3291729,34.4002532 27.9188335,26 C26.2597768,26 27.3540339,42.1288693 27.3540339,42.1288693 L27.3540339,62.4851205 C27.3856735,77.7732046 36.935095,100.655445 58.1080116,109.393004 C63.2861266,111.52982 75.0153111,115 83.9999331,115 C92.9845551,115 104.71374,111.860188 109.891855,109.723371 C131.064771,100.985813 140.614193,77.7732046 140.646169,62.4851205 L140.646169,42.1288693 C140.646169,42.1288693 141.740089,26 140.081033,26" id="react-path-214"></path></defs><mask id="react-mask-213" fill="white"><use xlink:href="#react-path-214"></use></mask><use id="Lite-Beard" fill="#331B0C" fill-rule="evenodd" xlink:href="#react-path-214"></use><g id="Color/Hair/Brown" mask="url(#react-mask-213)" fill="#C93305"><g transform="translate(-32.000000, 0.000000)" id="Color"><rect x="0" y="0" width="264" height="244"></rect></g></g></g><g id="Hair" stroke-width="1" fill-rule="evenodd" transform="translate(75.000000, 34.000000)"><mask id="react-mask-203" fill="white"><use xlink:href="#react-path-205"></use></mask><use id="Caesar" fill="#28354B" xlink:href="#react-path-205"></use><g id="Skin/👶🏽-03-Brown" mask="url(#react-mask-203)" fill="#C93305"><g transform="translate(0.000000, 0.000000) " id="Color"><rect x="0" y="0" width="264" height="280"></rect></g></g></g></g></g></g></g></g></g></g></svg>
